resources/icons/20px/application.svg

<svg xmlns="http://www.w3.org/2000/svg" viewBox="0 0 20 20">
  <path d="M3.5 9h9c.28 0 .5-.22.5-.5s-.22-.5-.5-.5h-9c-.28 0-.5.22-.5.5s.22.5.5.5m0 2h5c.28 0 .5-.22.5-.5s-.22-.5-.5-.5h-5c-.28 0-.5.22-.5.5s.22.5.5.5M19 1H1c-.55 0-1 .45-1 1v16c0 .55.45 1 1 1h18c.55 0 1-.45 1-1V2c0-.55-.45-1-1-1m-1 16H2V6h16zM3.5 13h7c.28 0 .5-.22.5-.5s-.22-.5-.5-.5h-7c-.28 0-.5.22-.5.5s.22.5.5.5"/>
</svg>

<?xml version="1.0" encoding="utf-8"?>
<!-- Generator: Adobe Illustrator 18.0.0, SVG Export Plug-In . SVG Version: 6.00 Build 0)  -->
<svg version="1.1" id="Layer_1" xmlns="http://www.w3.org/2000/svg" xmlns:xlink="http://www.w3.org/1999/xlink" x="0px" y="0px"
	 viewBox="0 0 20 20" enable-background="new 0 0 20 20" xml:space="preserve">
<g id="application">
	<g>
		<path fill-rule="evenodd" clip-rule="evenodd" d="M3.5,9h9C12.78,9,13,8.78,13,8.5C13,8.22,12.78,8,12.5,8h-9C3.22,8,3,8.22,3,8.5
			C3,8.78,3.22,9,3.5,9z M3.5,11h5C8.78,11,9,10.78,9,10.5C9,10.22,8.78,10,8.5,10h-5C3.22,10,3,10.22,3,10.5
			C3,10.78,3.22,11,3.5,11z M19,1H1C0.45,1,0,1.45,0,2v16c0,0.55,0.45,1,1,1h18c0.55,0,1-0.45,1-1V2C20,1.45,19.55,1,19,1z M18,17H2
			V6h16V17z M3.5,13h7c0.28,0,0.5-0.22,0.5-0.5c0-0.28-0.22-0.5-0.5-0.5h-7C3.22,12,3,12.22,3,12.5C3,12.78,3.22,13,3.5,13z"/>
	</g>
</g>
</svg>
